src/static/logos/haiku.svg

<?xml version="1.0" encoding="UTF-8"?>
<svg width="256px" height="291px" viewBox="0 0 256 291" version="1.1" xmlns="http://www.w3.org/2000/svg" xmlns:xlink="http://www.w3.org/1999/xlink" preserveAspectRatio="xMidYMid">
    <defs>
        <linearGradient x1="50%" y1="-8.06520239%" x2="50%" y2="92.1099078%" id="linearGradient-1">
            <stop stop-color="#FFDE64" offset="0%"></stop>
            <stop stop-color="#D62563" offset="100%"></stop>
        </linearGradient>
    </defs>
    <g>
        <path d="M167.887711,154.795867 L167.887711,190.100803 C167.887711,194.500728 164.422663,198.067571 160.148308,198.067571 C158.91011,198.067571 157.739826,197.768259 156.702011,197.236091 C156.539564,197.17871 156.377866,197.115427 156.217152,197.046142 L52.2799517,152.238101 C50.1074648,152.2046 48.0237997,151.224996 46.5780596,149.531955 C44.6866607,148.079483 43.46193,145.7581 43.46193,143.142261 L43.46193,51.7966137 C43.2255762,51.4875017 43.0080703,51.1589498 42.8118804,50.812036 L37.8784007,48.7590602 L15.4810125,39.4388042 L15.4810125,257.48227 L43.46193,269.126007 L43.46193,195.845497 C43.46193,195.7315 43.4642559,195.618063 43.4688616,195.505232 C43.41507,194.357499 43.6027576,193.179728 44.0626959,192.049245 C45.7138536,187.990861 50.2484576,186.078742 54.1910181,187.778406 L158.657195,232.81747 L160.677348,233.753264 C164.704954,234.033143 167.887711,237.484821 167.887711,241.701711 L167.887711,257.48227 L195.599295,269.01393 L195.868629,269.126008 L195.868629,142.061974 L167.887711,154.795867 Z M152.408906,158.540402 L95.9641445,134.206677 L73.189736,143.977998 L152.408906,178.129927 L152.408906,158.540402 Z M58.9407354,207.100496 L58.9407354,270.33837 L86.9216527,258.694631 L86.9216527,219.163262 L58.9407354,207.100496 Z M51.3565123,290.832313 C51.304908,290.833358 51.2531799,290.833883 51.2013326,290.833883 C49.1299214,290.833883 47.2485763,289.996206 45.859552,288.631991 L37.8784007,285.310784 L6.45098039,272.232848 C2.79097139,271.600405 0.00220722986,268.323625 0.00220722986,264.376358 L0.00220722986,263.957453 C-0.000729055599,263.826549 -0.000742421639,263.69533 0.00220722986,263.56389 L0.00220722986,27.4057268 C-0.000495457963,27.2852391 -0.0007217962,27.1644824 0.00155948373,27.0435324 C-0.0007217962,26.9225823 -0.000495457963,26.8018256 0.00220722986,26.6813379 L0.00220722986,26.5958188 C0.00220722986,24.1686765 1.05661685,21.9950396 2.71964016,20.5338006 C3.43115611,19.8657922 4.26805464,19.3143242 5.21317771,18.9210289 L48.0405786,1.09920354 C50.202964,-0.147703047 52.8810413,-0.393239574 55.3436985,0.670325098 L95.5305918,18.0261155 C95.6370978,18.0216407 95.7441588,18.0193814 95.8517325,18.0193814 C100.126086,18.0193814 103.591135,21.586225 103.591135,25.9861493 L103.591135,27.0204571 C103.594017,27.1501623 103.594029,27.2801679 103.591135,27.4103786 L103.591135,79.2032217 L152.408906,58.9628634 L152.408906,27.405723 C152.406203,27.2852366 152.405976,27.164481 152.408258,27.0435324 C152.405976,26.9225837 152.406203,26.8018282 152.408906,26.6813418 L152.408906,25.9861493 C152.408906,21.7191014 155.667828,18.2355764 159.763343,18.0290653 L200.447278,1.09920299 C202.609664,-0.147703118 205.28774,-0.393239417 207.750398,0.670325098 L249.616386,18.751278 C253.243214,19.4120397 255.997834,22.6727908 255.997834,26.5958188 L255.997834,27.020437 C256.000715,27.150157 256.000728,27.2801752 255.997834,27.4103987 L255.997834,264.376358 C255.997834,267.315043 254.452135,269.882104 252.151981,271.263055 C251.425318,271.961492 250.564107,272.536933 249.587293,272.943416 L207.92248,290.281453 C205.213141,291.408894 202.265792,290.965475 200.033183,289.367268 L189.351753,284.92239 L157.619877,271.71776 C155.122047,270.678335 153.380134,268.534117 152.710872,266.053624 C152.53213,265.415404 152.428815,264.744274 152.411507,264.051123 C152.406145,263.889175 152.405253,263.726704 152.408906,263.563893 L152.408906,247.395625 L152.305129,247.347551 L152.408906,247.110166 L152.408906,247.395266 L102.400458,225.836281 L102.400458,264.311026 C102.400458,264.548188 102.39039,264.782928 102.370672,265.014821 C102.359676,268.397811 100.3926,271.597206 97.1575405,272.943416 L55.515781,290.271859 C54.1491571,290.840554 52.7219761,291.009573 51.3565123,290.832313 Z M211.347434,270.347963 L240.519028,258.208747 L240.519028,39.8845916 L211.347434,52.023807 L211.347434,78.6542637 C211.347434,81.1685985 210.215907,83.4108873 208.448439,84.8709833 C207.660825,85.8936087 206.617592,86.731 205.364535,87.2686216 L116.047094,125.590121 L155.966757,142.799761 L199.736457,122.880521 C203.645798,121.10141 208.216041,122.921407 209.944376,126.945596 C209.98571,127.041838 210.025046,127.138469 210.062399,127.23544 C210.874444,128.495744 211.347434,130.007637 211.347434,131.63325 L211.347434,270.347963 Z M195.868629,51.7966137 C195.632275,51.4875017 195.414769,51.1589498 195.21858,50.812036 L190.285099,48.7590602 L167.887711,39.4388042 L167.887711,57.9349445 L195.868629,69.5786821 L195.868629,51.7966137 Z M58.9407354,132.829339 L88.1123298,120.313315 L88.1123298,39.8845911 L58.9407354,52.023807 L58.9407354,132.829339 Z M103.591135,96.3806519 L103.591135,113.672159 L179.296667,81.190827 L160.001231,73.1613906 C159.934119,73.1334631 159.867554,73.1047381 159.801539,73.0752308 L103.591135,96.3806519 Z M182.577751,27.0435324 L196.53264,32.8506002 L204.739003,36.2655247 L226.304277,27.2915372 L204.554508,17.8983143 L182.577751,27.0435324 Z M30.171052,27.0435324 L44.1259424,32.8506002 L52.3323038,36.2655247 L73.8975785,27.2915371 L52.1478087,17.8983142 L30.171052,27.0435324 Z" fill="url(#linearGradient-1)" fill-rule="nonzero"></path>
    </g>
</svg>

<svg width="256" height="291" xmlns="http://www.w3.org/2000/svg" preserveAspectRatio="xMidYMid"><defs><linearGradient x1="50%" y1="-8.065%" x2="50%" y2="92.11%" id="a"><stop stop-color="#FFDE64" offset="0%"/><stop stop-color="#D62563" offset="100%"/></linearGradient></defs><path d="M167.888 154.796V190.1c0 4.4-3.465 7.967-7.74 7.967a7.53 7.53 0 01-3.446-.832 7.717 7.717 0 01-.485-.19L52.28 152.238a7.672 7.672 0 01-5.702-2.706 8.034 8.034 0 01-3.116-6.39V51.797a8.548 8.548 0 01-.65-.985l-4.934-2.053-22.397-9.32v218.043l27.98 11.644v-73.28c0-.114.003-.228.008-.34a8.143 8.143 0 01.594-3.457c1.65-4.058 6.185-5.97 10.128-4.27l104.466 45.038 2.02.936c4.028.28 7.21 3.732 7.21 7.949v15.78l27.712 11.532.27.112V142.062l-27.981 12.734zm-15.48 3.744l-56.444-24.333-22.774 9.771 79.219 34.152v-19.59zM58.942 207.1v63.238l27.98-11.643v-39.532L58.942 207.1zm-7.584 83.732a7.598 7.598 0 01-5.497-2.2l-7.982-3.321-31.427-13.078c-3.66-.633-6.449-3.91-6.449-7.857v-.419a8.773 8.773 0 010-.393V27.406a8.773 8.773 0 010-.362 8.773 8.773 0 010-.363v-.085a8.047 8.047 0 012.718-6.062 8.288 8.288 0 012.493-1.613L48.041 1.099A8.11 8.11 0 0155.344.67L95.53 18.026a7.65 7.65 0 01.32-.007c4.275 0 7.74 3.567 7.74 7.967v1.034c.003.13.003.26 0 .39v51.793l48.818-20.24V27.406a8.771 8.771 0 010-.362 8.771 8.771 0 010-.363v-.695c0-4.267 3.259-7.75 7.354-7.957L200.447 1.1a8.11 8.11 0 017.303-.43l41.866 18.081c3.627.661 6.382 3.922 6.382 7.845v.424c.003.13.003.26 0 .39v236.966c0 2.939-1.546 5.506-3.846 6.887a8.289 8.289 0 01-2.565 1.68l-41.665 17.338c-2.709 1.128-5.656.684-7.889-.914l-10.681-4.445-31.732-13.204c-2.498-1.04-4.24-3.184-4.91-5.664a8.175 8.175 0 01-.298-2.003 8.775 8.775 0 01-.003-.487v-16.168l-.104-.048.104-.238v.285L102.4 225.836v38.475a8.2 8.2 0 01-.03.704c-.01 3.383-1.977 6.582-5.212 7.928l-41.642 17.329a8.08 8.08 0 01-4.16.56zm159.99-20.484l29.172-12.14V39.886l-29.172 12.139v26.63a8.04 8.04 0 01-2.899 6.217 7.732 7.732 0 01-3.083 2.398l-89.318 38.321 39.92 17.21 43.77-19.92c3.909-1.779 8.479.041 10.207 4.066.042.096.081.192.118.29a8.097 8.097 0 011.285 4.397v138.715zM195.87 51.797a8.547 8.547 0 01-.65-.985l-4.934-2.053-22.397-9.32v18.496l27.98 11.644V51.797zM58.94 132.829l29.171-12.516V39.885l-29.17 12.139v80.805zm44.65-36.448v17.291l75.706-32.481L160 73.16a8.364 8.364 0 01-.2-.086L103.59 96.38zm78.987-69.337l13.955 5.807 8.206 3.415 21.565-8.974-21.75-9.394-21.976 9.146zm-152.407 0l13.955 5.807 8.206 3.415 21.566-8.974-21.75-9.394-21.977 9.146z" fill="url(#a)"/></svg>
